images/icons/instagram_icon_small.svg

<svg width="25" height="25" viewBox="0 0 25 25" fill="none" xmlns="http://www.w3.org/2000/svg">
<path d="M9.72916 5.9028H15.2708C17.3819 5.9028 19.0972 7.61808 19.0972 9.72919V15.2709C19.0972 16.2857 18.6941 17.2589 17.9765 17.9765C17.2589 18.6941 16.2856 19.0972 15.2708 19.0972H9.72916C7.61805 19.0972 5.90277 17.382 5.90277 15.2709V9.72919C5.90277 8.71437 6.30591 7.74111 7.02349 7.02352C7.74108 6.30594 8.71434 5.9028 9.72916 5.9028ZM9.59722 7.22225C8.96733 7.22225 8.36324 7.47247 7.91784 7.91787C7.47244 8.36327 7.22222 8.96736 7.22222 9.59725V15.4028C7.22222 16.7156 8.28437 17.7778 9.59722 17.7778H15.4028C16.0327 17.7778 16.6368 17.5276 17.0821 17.0822C17.5275 16.6368 17.7778 16.0327 17.7778 15.4028V9.59725C17.7778 8.2844 16.7156 7.22225 15.4028 7.22225H9.59722ZM15.9635 8.21183C16.1822 8.21183 16.392 8.29871 16.5467 8.45336C16.7013 8.60802 16.7882 8.81777 16.7882 9.03648C16.7882 9.25519 16.7013 9.46495 16.5467 9.6196C16.392 9.77425 16.1822 9.86113 15.9635 9.86113C15.7448 9.86113 15.5351 9.77425 15.3804 9.6196C15.2258 9.46495 15.1389 9.25519 15.1389 9.03648C15.1389 8.81777 15.2258 8.60802 15.3804 8.45336C15.5351 8.29871 15.7448 8.21183 15.9635 8.21183ZM12.5 9.20141C13.3748 9.20141 14.2139 9.54894 14.8325 10.1676C15.4511 10.7862 15.7986 11.6252 15.7986 12.5C15.7986 13.3749 15.4511 14.2139 14.8325 14.8325C14.2139 15.4511 13.3748 15.7986 12.5 15.7986C11.6251 15.7986 10.7861 15.4511 10.1675 14.8325C9.54891 14.2139 9.20138 13.3749 9.20138 12.5C9.20138 11.6252 9.54891 10.7862 10.1675 10.1676C10.7861 9.54894 11.6251 9.20141 12.5 9.20141ZM12.5 10.5209C11.9751 10.5209 11.4717 10.7294 11.1005 11.1005C10.7293 11.4717 10.5208 11.9751 10.5208 12.5C10.5208 13.0249 10.7293 13.5283 11.1005 13.8995C11.4717 14.2707 11.9751 14.4792 12.5 14.4792C13.0249 14.4792 13.5283 14.2707 13.8995 13.8995C14.2706 13.5283 14.4792 13.0249 14.4792 12.5C14.4792 11.9751 14.2706 11.4717 13.8995 11.1005C13.5283 10.7294 13.0249 10.5209 12.5 10.5209Z" fill="white"/>
</svg>

<svg xmlns="http://www.w3.org/2000/svg" width="25" height="25" fill="none"><path fill="#fff" d="M9.729 5.903h5.542a3.83 3.83 0 0 1 3.826 3.826v5.542a3.826 3.826 0 0 1-3.827 3.827H9.729a3.83 3.83 0 0 1-3.826-3.826V9.729A3.826 3.826 0 0 1 9.73 5.902zm-.132 1.319a2.377 2.377 0 0 0-2.375 2.375v5.806a2.373 2.373 0 0 0 2.375 2.375h5.806a2.379 2.379 0 0 0 2.375-2.375V9.597a2.373 2.373 0 0 0-2.375-2.375H9.597zm6.366.99a.823.823 0 0 1 .583 1.408.822.822 0 0 1-1.166 0 .823.823 0 0 1 .583-1.408zm-3.463.99a3.3 3.3 0 0 1 3.299 3.299A3.3 3.3 0 0 1 12.5 15.8a3.3 3.3 0 0 1-3.299-3.3A3.3 3.3 0 0 1 12.5 9.201zm0 1.319a1.98 1.98 0 0 0-1.979 1.979 1.98 1.98 0 0 0 1.979 1.979 1.98 1.98 0 0 0 1.979-1.979 1.98 1.98 0 0 0-1.979-1.979z"/></svg>
